images/background-vector.svg

<svg width="1579" height="1132" fill="none" xmlns="http://www.w3.org/2000/svg"><g opacity=".3"><path d="m-2118 1221 1599.407-759 1164.296-30 354.09-531h657.167M69.556 1803 1251.86 903l30-618L1813 225v-336m-148.61 11.429-625.87 16L675.997 425l-1110.283 58-1579.544 765.71M1671.82-100.143l-594.58 32L706.29 418l-1056.269 86-1559.681 772.43M1679.25-100.714l-563.28 48L736.584 411-265.671 525l-1539.819 779.14M1686.68-101.286l-531.99 64L766.877 404l-948.241 142-1519.956 785.86M1694.11-101.857l-500.7 80L797.17 397-97.057 567l-1500.093 792.57M1701.54-102.428l-469.4 96L827.464 390-12.75 588l-1480.23 799.29M1708.97-103 1270.86 9 857.757 383l-786.2 226-1460.367 806M1716.4-103.571l-406.81 128L888.05 376 155.864 630l-1440.514 812.71M1723.83-104.143l-375.52 144L918.344 369 240.171 651l-1420.651 819.43M1731.26-104.714l-344.23 160L948.637 362 324.479 672l-1400.789 826.14M1738.7-105.286l-312.94 176L978.931 355 408.786 693l-1380.923 832.86M1746.13-105.857l-281.65 192L1009.22 348 493.093 714l-1361.061 839.57M1753.56-106.429l-250.35 208L1039.52 341 577.4 735l-1341.198 846.29M1760.99-107l-219.06 224-472.12 217-408.103 422-1321.336 853M1768.42-107.572l-187.76 240L1100.1 327 746.014 777-555.46 1636.71M1775.85-108.143l-156.47 256L1130.4 320 830.321 798-451.29 1664.43M1783.28-108.714l-125.18 272L1160.69 313 914.629 819l-1261.75 873.14M1790.71-109.286l-93.88 288L1190.98 306 998.936 840l-1241.887 879.86M1798.14-109.857l-62.59 304L1221.28 299l-138.04 562-1222.022 886.57M1805.57-110.429l-31.29 320L1251.57 292l-84.02 590-1202.163 893.29" stroke="#46595B"/><path d="m-2118 1221 1599.407-759 1164.296-30 354.09-531h657.167M69.556 1803 1251.86 903l30-618L1813 225v-336m-148.61 11.429-625.87 16L675.997 425l-1110.283 58-1579.544 765.71M1671.82-100.143l-594.58 32L706.29 418l-1056.269 86-1559.681 772.43M1679.25-100.714l-563.28 48L736.584 411-265.671 525l-1539.819 779.14M1686.68-101.286l-531.99 64L766.877 404l-948.241 142-1519.956 785.86M1694.11-101.857l-500.7 80L797.17 397-97.057 567l-1500.093 792.57M1701.54-102.428l-469.4 96L827.464 390-12.75 588l-1480.23 799.29M1708.97-103 1270.86 9 857.757 383l-786.2 226-1460.367 806M1716.4-103.571l-406.81 128L888.05 376 155.864 630l-1440.514 812.71M1723.83-104.143l-375.52 144L918.344 369 240.171 651l-1420.651 819.43M1731.26-104.714l-344.23 160L948.637 362 324.479 672l-1400.789 826.14M1738.7-105.286l-312.94 176L978.931 355 408.786 693l-1380.923 832.86M1746.13-105.857l-281.65 192L1009.22 348 493.093 714l-1361.061 839.57M1753.56-106.429l-250.35 208L1039.52 341 577.4 735l-1341.198 846.29M1760.99-107l-219.06 224-472.12 217-408.103 422-1321.336 853M1768.42-107.572l-187.76 240L1100.1 327 746.014 777-555.46 1636.71M1775.85-108.143l-156.47 256L1130.4 320 830.321 798-451.29 1664.43M1783.28-108.714l-125.18 272L1160.69 313 914.629 819l-1261.75 873.14M1790.71-109.286l-93.88 288L1190.98 306 998.936 840l-1241.887 879.86M1798.14-109.857l-62.59 304L1221.28 299l-138.04 562-1222.022 886.57M1805.57-110.429l-31.29 320L1251.57 292l-84.02 590-1202.163 893.29" stroke="url(#a)"/></g><defs><linearGradient id="a" x1="-316.934" y1="970.603" x2="58.152" y2="467.032" gradientUnits="userSpaceOnUse"><stop stop-color="#16161C"/><stop offset="1" stop-color="#fff" stop-opacity="0"/></linearGradient></defs></svg>

<svg width="1579" height="1132" viewBox="0 0 1579 1132" fill="none" xmlns="http://www.w3.org/2000/svg">
<g opacity="0.3">
<path d="M-2118 1221L-518.593 462L645.703 432L999.793 -99H1656.96M69.5565 1803L1251.86 903L1281.86 285L1813 225V-111M1664.39 -99.5713L1038.52 -83.5713L675.997 425L-434.286 483L-2013.83 1248.71M1671.82 -100.143L1077.24 -68.1429L706.29 418L-349.979 504L-1909.66 1276.43M1679.25 -100.714L1115.97 -52.7142L736.584 411L-265.671 525L-1805.49 1304.14M1686.68 -101.286L1154.69 -37.2859L766.877 404L-181.364 546L-1701.32 1331.86M1694.11 -101.857L1193.41 -21.8572L797.17 397L-97.0573 567L-1597.15 1359.57M1701.54 -102.428L1232.14 -6.42847L827.464 390L-12.7502 588L-1492.98 1387.29M1708.97 -103L1270.86 8.99987L857.757 383L71.5569 609L-1388.81 1415M1716.4 -103.571L1309.59 24.4286L888.05 376L155.864 630L-1284.65 1442.71M1723.83 -104.143L1348.31 39.8573L918.344 369L240.171 651L-1180.48 1470.43M1731.26 -104.714L1387.03 55.2856L948.637 362L324.479 672L-1076.31 1498.14M1738.7 -105.286L1425.76 70.7144L978.931 355L408.786 693L-972.137 1525.86M1746.13 -105.857L1464.48 86.1427L1009.22 348L493.093 714L-867.968 1553.57M1753.56 -106.429L1503.21 101.571L1039.52 341L577.4 735L-763.798 1581.29M1760.99 -107L1541.93 117L1069.81 334L661.707 756L-659.629 1609M1768.42 -107.572L1580.66 132.428L1100.1 327L746.014 777L-555.46 1636.71M1775.85 -108.143L1619.38 147.857L1130.4 320L830.321 798L-451.29 1664.43M1783.28 -108.714L1658.1 163.286L1160.69 313L914.629 819L-347.121 1692.14M1790.71 -109.286L1696.83 178.714L1190.98 306L998.936 840L-242.951 1719.86M1798.14 -109.857L1735.55 194.143L1221.28 299L1083.24 861L-138.782 1747.57M1805.57 -110.429L1774.28 209.571L1251.57 292L1167.55 882L-34.6129 1775.29" stroke="#46595B"/>
<path d="M-2118 1221L-518.593 462L645.703 432L999.793 -99H1656.96M69.5565 1803L1251.86 903L1281.86 285L1813 225V-111M1664.39 -99.5713L1038.52 -83.5713L675.997 425L-434.286 483L-2013.83 1248.71M1671.82 -100.143L1077.24 -68.1429L706.29 418L-349.979 504L-1909.66 1276.43M1679.25 -100.714L1115.97 -52.7142L736.584 411L-265.671 525L-1805.49 1304.14M1686.68 -101.286L1154.69 -37.2859L766.877 404L-181.364 546L-1701.32 1331.86M1694.11 -101.857L1193.41 -21.8572L797.17 397L-97.0573 567L-1597.15 1359.57M1701.54 -102.428L1232.14 -6.42847L827.464 390L-12.7502 588L-1492.98 1387.29M1708.97 -103L1270.86 8.99987L857.757 383L71.5569 609L-1388.81 1415M1716.4 -103.571L1309.59 24.4286L888.05 376L155.864 630L-1284.65 1442.71M1723.83 -104.143L1348.31 39.8573L918.344 369L240.171 651L-1180.48 1470.43M1731.26 -104.714L1387.03 55.2856L948.637 362L324.479 672L-1076.31 1498.14M1738.7 -105.286L1425.76 70.7144L978.931 355L408.786 693L-972.137 1525.86M1746.13 -105.857L1464.48 86.1427L1009.22 348L493.093 714L-867.968 1553.57M1753.56 -106.429L1503.21 101.571L1039.52 341L577.4 735L-763.798 1581.29M1760.99 -107L1541.93 117L1069.81 334L661.707 756L-659.629 1609M1768.42 -107.572L1580.66 132.428L1100.1 327L746.014 777L-555.46 1636.71M1775.85 -108.143L1619.38 147.857L1130.4 320L830.321 798L-451.29 1664.43M1783.28 -108.714L1658.1 163.286L1160.69 313L914.629 819L-347.121 1692.14M1790.71 -109.286L1696.83 178.714L1190.98 306L998.936 840L-242.951 1719.86M1798.14 -109.857L1735.55 194.143L1221.28 299L1083.24 861L-138.782 1747.57M1805.57 -110.429L1774.28 209.571L1251.57 292L1167.55 882L-34.6129 1775.29" stroke="url(#paint0_linear_157_252)"/>
</g>
<defs>
<linearGradient id="paint0_linear_157_252" x1="-316.934" y1="970.603" x2="58.1522" y2="467.032" gradientUnits="userSpaceOnUse">
<stop stop-color="#16161C"/>
<stop offset="1" stop-color="white" stop-opacity="0"/>
</linearGradient>
</defs>
</svg>
